src/assets/svgs/refactor/story-security.svg

<svg fill="none" height="32" viewBox="0 0 25 32" width="25" xmlns="http://www.w3.org/2000/svg"><g fill="#101010"><path d="m1.21269 32c-.664649 0-1.21269-.5371-1.21269-1.2v-14.8c0-.6629.548041-1.2 1.21269-1.2h2.49533l.0583-6.26286c0-4.78857 3.85961-8.53714 8.79198-8.53714 4.9324 0 8.6754 3.82857 8.6754 8.53714 0 .66286-.5481 1.2-1.2127 1.2-.6647 0-1.2127-.53714-1.2127-1.2 0-3.38285-2.7985-6.14857-6.25-6.14857-3.45149 0-6.35494 2.69714-6.35494 6.14857v6.20576l17.58394.0571c.6647 0 1.2127.5371 1.2127 1.2v14.8c0 .6629-.548 1.2-1.2127 1.2zm1.21268-2.4571 20.07933.0571.0583-12.3543-20.14929-.0571v12.3543z"/><path d="m14 23.5c0 .8284-.6716 1.5-1.5 1.5s-1.5-.6716-1.5-1.5.6716-1.5 1.5-1.5 1.5.6716 1.5 1.5z"/></g></svg>

<svg width="25" height="32" viewBox="0 0 25 32" fill="none" xmlns="http://www.w3.org/2000/svg">
<g id="Security">
<path d="M1.21269 32C0.548041 32 0 31.4629 0 30.8V16C0 15.3371 0.548041 14.8 1.21269 14.8H3.70802L3.76632 8.53714C3.76632 3.74857 7.62593 0 12.5583 0C17.4907 0 21.2337 3.82857 21.2337 8.53714C21.2337 9.2 20.6856 9.73714 20.021 9.73714C19.3563 9.73714 18.8083 9.2 18.8083 8.53714C18.8083 5.15429 16.0098 2.38857 12.5583 2.38857C9.10681 2.38857 6.20336 5.08571 6.20336 8.53714V14.7429L23.7873 14.8C24.452 14.8 25 15.3371 25 16V30.8C25 31.4629 24.452 32 23.7873 32H1.21269ZM2.42537 29.5429L22.5047 29.6L22.563 17.2457L2.41371 17.1886V29.5429H2.42537Z" fill="#101010"/>
<path d="M14 23.5C14 24.3284 13.3284 25 12.5 25C11.6716 25 11 24.3284 11 23.5C11 22.6716 11.6716 22 12.5 22C13.3284 22 14 22.6716 14 23.5Z" fill="#101010"/>
</g>
</svg>
